X:1
T:Can You Count the Stars?
T:Can You Count the Stars?
T:German Melody
T:Johann Wilhelm Hey (1789-1854)
T:Public Domain Courtesy of the Cyber Hymnal™
C:German Melody
Z:Public Domain
Z:Courtesy of the Cyber Hymnal™
%%score ( 1 2 ) 3
L:1/8
Q:1/4=110
M:3/4
K:Eb
V:1 treble 
V:2 treble 
V:3 bass 
V:1
 [B,E][DF] | [EG]2 [EG]2 [FA]F | (cB) [EB]2 [EG][GB] | [GB][FA] [FA]2 ([DB][FA]) | %4
w: 1.~Can you|count the stars that|bright- * ly Twink- le|in the mid- night *|
w: 2.~Can you|count the wings now|flash- * ing In the|sun- shine’s gold- en *|
w: 3.~Do you|know how ma- ny|child- * ren Rise each|morn- ing blithe and *|
 [EG]4 [B,E][DF] | [EG]2 [EG]2 [FA]F | (cB) [EB]2 [EG][GB] | ([GB][FA]) [FA]2 [DB][FA] | %8
w: sky? Can you|count the clouds, so|light- * ly O’er the|mea- * dows float- ing|
w: light? Can you|count the fish- es|splash- * ing In the|cool- * ing wa- ters|
w: gay? Can you|count their jol- ly|voic- * es, Sing- ing|sweet- * ly day by|
 [EG]4 [GB][EG] | ([EG][DF]) [DF]2 [Ac][FA] | ([FA][EG]) [EG]2 [GB][EG] | %11
w: by? God, the|Lord, * doth mark their|num- * ber, With His|
w: bright? God, the|Lord, * a name hath|giv- * en, To all|
w: day? God hears|all * the hap- py|voic- * es, In their|
 ([EG][DF]) [DF]2 [Ac][FA] | ([FA][EG]) [EG]2 [B,E][DF] | [EG]2 [EG]2 [FA][DF] | %14
w: eyes * that nev- er|slum- * ber; He hath|made them ev- ery|
w: crea- * tures un- der|heav- * en; He hath|named them ev- ery|
w: mer- * ry songs re-|joic- * es; And He|loves them, ev- ery|
 [E-c]2 [EB]2 [EG][GB] | ([GB][FA]) [FA]2 [DB][FA] | [EG]4 |] %17
w: one, * He hath|made * them ev- ery|one.|
w: one, * He hath|named * them ev- ery|one.|
w: one * And He|loves * them, ev- ery|one.|
V:2
 x2 | x5 F | E2 x4 | x6 | x6 | x5 F | E2 x4 | x6 | x6 | x6 | x6 | x6 | x6 | x6 | x6 | x6 | x4 |] %17
V:3
 [E,G,][B,,B,] | [E,B,]2 [E,B,]2 [D,B,][D,A,] | [E,G,]2 [E,G,]2 [E,B,][E,G,] | %3
 [D,B,][D,B,] [D,B,]2 ([B,,B,][D,B,]) | [E,B,]4 [E,G,][B,,B,] | [E,B,]2 [E,B,]2 [D,B,][D,A,] | %6
 [E,G,]2 [E,G,]2 [E,B,][E,G,] | [D,B,]2 [D,B,]2 [B,,B,][D,B,] | [E,B,]4 [E,B,][E,B,] | %9
 [B,,B,]2 [B,,B,]2 [B,,B,][D,B,] | [E,B,]2 [E,B,]2 [E,B,][E,B,] | [B,,B,]2 [B,,B,]2 [B,,B,][D,B,] | %12
 [E,B,]2 [E,B,]2 [E,G,][B,,B,] | [E,B,]2 [E,B,]2 [B,,B,][B,,A,] | [E,G,]2- [E,G,]2 [E,B,][E,G,] | %15
 [B,,B,]2 [B,,B,]2 [B,,B,][B,,B,] | [E,B,]4 |] %17

